X:1
T:O in fausti habitator
T:Ludovico Bellanda Veronese
T:Source : Musische di L.Bellanda---Venetia---G.Vincenti---1607. Editor : André Vierendeels (06/07/15).
T:Notes : Original clefs : C4, F4 Figures in BC are notated in original print Lyrics by Isabella Andreini Padovana : "RIMI" - Sonetto XXXV (1601)   
T:O infausti habitator
C:Ludovico Bellanda Veronese
%%score 1 2
L:1/8
Q:1/4=120
M:4/4
K:F
V:1 treble-8 nm="Tenor" snm="T"
V:2 bass nm="BC" snm="BC"
V:1
 z4 c4- | c4 ^cccc | ^c6 d2 | G3 G F4 | F2 AA A2 AA | d4 G2 c2- | c2 c2 c4 | B8 | z2 F4 AB | %9
w: O'in-|* fau- sti'ha- bi- ta-|tor del|ciec' A- ver-|no le me- stis- si- me|mie que- rel'|_ u- di-|te|fuor de pro-|
 c6 d2 | _e2 e2 d3 c | c4 c4 | z2 ^cc d2 ^FF | G2 A2 B4- | B2 A2 A4 | G4 z2 G2 | A>B A>B c4- | %17
w: fon- di'e-|ter- ni'or- ro- ri'u-|sci- te,|e cor- re- te'al mio|pian- to'al duo-|* lo'in- ter-|no, al|duol _ _ _ in-|
 c2 B/A/G/F/ G4 | F8 | z4 F4 | AAAA A2 c2- | c2 FF E3 F/G/ | E8 | z BBB BB d2- | d2 c2 B3 A | %25
w: * * * * * ter-|no,|piu|as- pr'en- tro'l mio cor pe-|* ne'io dis- cer- * *|no,|che non ha piu la tor-|* men- to- sa|
 A4 A4 | A6 DD | C4 C4 | G2 G2 c3 G | A4 A4 | z2 AB c4- | c2 GA F4 | z2 A2 B>c A>B | %33
w: Di- te.|Spir- ti d'A-|bis- se|dun- que'a me ve-|ni- te,|se bra- ma-|* te'ha- bi- tar|no- vel- * * *|
 G>A F>G E>F D>E | C2 D/C/D/E/ F/E/D/E/ F/G/A/B/ | c2 G2 G4 | F6 E2 | E>F E>F G4- | %38
w: ||* l'in- fer-|no, vo-|vel- * * * *|
 G2 F/E/D/C/ D4 | C8 |] %40
w: * l'in- * * * fer-|no.|
V:2
 C,8 |"^#""^#" A,,4 A,,4 |"^#" A,,8 | B,,2 C,2 F,,4 | F,,4 F,4 |"^b" =B,,4 C,4 |"^6" _E,4 F,4 | %7
 B,,8 | F,4 D,4 | C,4 F,4 |"^6""^-natural" _E,4 G,4 | C,4 C,4 |"^#""^#" A,,4 D,4 |"^b" C,4 G,,4 | %14
"^#" D,8 |"^-natural" G,,4 C,4 | F,,2 G,,2 A,,2 B,,2 | C,8 | F,,8 | F,8 | F,4 F,4 | A,,4 C,4 | %22
 C,8 | G,,4 G,,4 | B,,2 C,2 D,2 E,2 | F,4 F,4 |"^#" D,4 =B,,4 | C,4 C,4 | C,8 | F,,4 F,,4 | F,8 | %31
 C,4 F,,4 | F,4 G,2 F,2 | E,2 D,2 C,2 B,,2 | A,,2 G,,2 F,,4 | A,,2 B,,2 C,4 | F,,4 C,4- | %37
 C,2 D,2 =B,,2 C,2 | G,,8 | C,8 |] %40

